icons/glyphs/glyph-ms-powerpoint.svg

<?xml version="1.0" encoding="UTF-8" standalone="no"?><svg height="16" viewBox="0 0 4.2333333 4.2333333" width="16" xmlns="http://www.w3.org/2000/svg"><sodipodi:namedview/><metadata><rdf:RDF><cc:Work><dc:format>image/svg+xml</dc:format><dc:type/><dc:title/></cc:Work></rdf:RDF></metadata><path d="m8.5585938 0c-2.852179.50797304-5.70669.99358844-8.5585938 1.4921875 0 4.3386588-.00192416 8.6790855 0 13.0195315 2.83717.496813 5.6782577.971072 8.5097656 1.488281h1.1621094v-1.488281c1.862264 0 3.344465-.002441 5.207031.005859.316135-.01485.669831.008.941406-.185547.217701-.332957.160446-.74916.179688-1.125-.02748-3.6651258.012099-7.3309386-.019531-10.9960935.03898-.4241904-.292605-.7557716-.716797-.7128906-1.988927-.030236-3.601083.0012343-5.591797-.0097657v-1.4882812zm1.0917968 2.2109375h5.2109374c.21642 0 .390625.1742066.390625.390625v10.6718755c0 .216416-.174207.390624-.390625.390624h-5.2109374v-2.925781a2.9804604 2.9804604 0 0 0 1.1015624.214844 2.9804604 2.9804604 0 0 0 2.980469-2.9804688h-2.980469v-2.9804687a2.9804604 2.9804604 0 0 0 -1.1015624.2128906zm-5.0585937 2.4902344c.5246351-.011142 1.0265698.06366 1.4355469.4335937.7834899.9507156.5775816 2.7003805-.5839844 3.2695313-.4125389.2107049-.8849463.180718-1.3339844.1660156-.00189.7107829-.0035531 1.42203-.0019531 2.1328125-.36059-.03162-.7212686-.062217-1.0820313-.091797-.016291-1.9414199-.0197008-3.8848941.0019532-5.8261718.4935339.02363 1.0398184-.0728353 1.5644531-.0839843zm6.7734371.3476562v2.3261719h2.326172a2.3263994 2.3263994 0 0 0 -2.326172-2.3261719zm-6.693359.7148438c-.185873-.023658-.3853753-.0023806-.5644531.0058593-.0054.6105926-.0089501 1.2191321.0292969 1.828125.3617887-.0436242.8298967-.0064177 1.0371093-.3808593.172766-.3671698.1837789-.8370973-.0234375-1.1933594-.1209124-.1680983-.2926421-.2361058-.4785156-.2597656z" fill="#d0d0d0" stroke-width=".148838" transform="scale(.26458333)"/></svg>

<?xml version="1.0" encoding="UTF-8" standalone="no"?>
<!-- Created with Inkscape (http://www.inkscape.org/) -->

<svg
     xmlns:dc="http://purl.org/dc/elements/1.1/"
     xmlns:cc="http://creativecommons.org/ns#"
     xmlns:rdf="http://www.w3.org/1999/02/22-rdf-syntax-ns#"
     xmlns:svg="http://www.w3.org/2000/svg"
     xmlns="http://www.w3.org/2000/svg"
     xmlns:sodipodi="http://sodipodi.sourceforge.net/DTD/sodipodi-0.dtd"
     xmlns:inkscape="http://www.inkscape.org/namespaces/inkscape"
     width="16"
     height="16"
     viewBox="0 0 4.2333333 4.2333333"
     version="1.1"
     id="svg8"
     inkscape:version="0.92+devel (572d1a9d8b, 2017-07-17, custom)"
     sodipodi:docname="glyph-ms-powerpoint.svg">
    <defs
         id="defs2" />
    <sodipodi:namedview
         id="base"
         pagecolor="#002466"
         bordercolor="#ffffff"
         borderopacity="0.38039216"
         inkscape:pageopacity="1"
         inkscape:pageshadow="2"
         inkscape:zoom="18.782524"
         inkscape:cx="10.183841"
         inkscape:cy="8.2611434"
         inkscape:document-units="px"
         inkscape:current-layer="svg8"
         inkscape:document-rotation="0"
         showgrid="false"
         inkscape:showpageshadow="false"
         borderlayer="true"
         inkscape:window-width="1920"
         inkscape:window-height="1051"
         inkscape:window-x="0"
         inkscape:window-y="0"
         inkscape:window-maximized="1"
         units="px"
         inkscape:object-paths="true" />
    <metadata
         id="metadata5">
        <rdf:RDF>
            <cc:Work
                 rdf:about="">
                <dc:format>image/svg+xml</dc:format>
                <dc:type
                     rdf:resource="http://purl.org/dc/dcmitype/StillImage" />
                <dc:title></dc:title>
            </cc:Work>
        </rdf:RDF>
    </metadata>
    <path
         style="fill:#d0d0d0;stroke-width:0.14883845"
         d="M 8.5585938 0 C 5.7064148 0.50797304 2.8519038 0.99358844 0 1.4921875 C 0 5.8308463 -0.00192416 10.171273 0 14.511719 C 2.83717 15.008532 5.6782577 15.482791 8.5097656 16 L 9.671875 16 L 9.671875 14.511719 C 11.534139 14.511719 13.01634 14.509278 14.878906 14.517578 C 15.195041 14.502728 15.548737 14.525578 15.820312 14.332031 C 16.038013 13.999074 15.980758 13.582871 16 13.207031 C 15.97252 9.5419052 16.012099 5.8760924 15.980469 2.2109375 C 16.019449 1.7867471 15.687864 1.4551659 15.263672 1.4980469 C 13.274745 1.4678109 11.662589 1.4992812 9.671875 1.4882812 L 9.671875 0 L 8.5585938 0 z M 9.6503906 2.2109375 L 14.861328 2.2109375 C 15.077748 2.2109375 15.251953 2.3851441 15.251953 2.6015625 L 15.251953 13.273438 C 15.251953 13.489854 15.077746 13.664062 14.861328 13.664062 L 9.6503906 13.664062 L 9.6503906 10.738281 A 2.9804604 2.9804604 0 0 0 10.751953 10.953125 A 2.9804604 2.9804604 0 0 0 13.732422 7.9726562 L 10.751953 7.9726562 L 10.751953 4.9921875 A 2.9804604 2.9804604 0 0 0 9.6503906 5.2050781 L 9.6503906 2.2109375 z M 4.5917969 4.7011719 C 5.116432 4.6900299 5.6183667 4.7648319 6.0273438 5.1347656 C 6.8108337 6.0854812 6.6049254 7.8351461 5.4433594 8.4042969 C 5.0308205 8.6150018 4.5584131 8.5850149 4.109375 8.5703125 C 4.107485 9.2810954 4.1058219 9.9923425 4.1074219 10.703125 C 3.7468319 10.671505 3.3861533 10.640908 3.0253906 10.611328 C 3.0090996 8.6699081 3.0056898 6.7264339 3.0273438 4.7851562 C 3.5208777 4.8087862 4.0671622 4.7123209 4.5917969 4.7011719 z M 11.365234 5.0488281 L 11.365234 7.375 L 13.691406 7.375 A 2.3263994 2.3263994 0 0 0 11.365234 5.0488281 z M 4.671875 5.7636719 C 4.486002 5.7400139 4.2864997 5.7612913 4.1074219 5.7695312 C 4.1020219 6.3801238 4.0984718 6.9886633 4.1367188 7.5976562 C 4.4985075 7.554032 4.9666155 7.5912385 5.1738281 7.2167969 C 5.3465941 6.8496271 5.357607 6.3796996 5.1503906 6.0234375 C 5.0294782 5.8553392 4.8577485 5.7873317 4.671875 5.7636719 z "
         transform="scale(0.26458333)"
         id="path2" />
</svg>
